icons/16/package.svg

<svg width="16" height="16" viewBox="0 0 16 16" xmlns="http://www.w3.org/2000/svg">
  <path fill-rule="evenodd" clip-rule="evenodd" d="M12.76 4.386L7.99901 1.637L3.23901 4.385L8.00001 7.134L12.76 4.386ZM2.49001 5.684V11.18L7.25001 13.928V8.433L2.49001 5.684ZM8.75001 13.927L13.508 11.18V5.686L8.75001 8.433V13.927ZM7.24901 0.338001C7.47704 0.206349 7.73571 0.137039 7.99901 0.137039C8.26232 0.137039 8.52098 0.206349 8.74901 0.338001L14.259 3.518C14.4872 3.64973 14.6766 3.83924 14.8083 4.06746C14.94 4.29567 15.0092 4.55453 15.009 4.818V11.18C15.009 11.4433 14.9397 11.702 14.808 11.93C14.6764 12.158 14.487 12.3474 14.259 12.479L8.74901 15.659C8.52098 15.7907 8.26232 15.86 7.99901 15.86C7.73571 15.86 7.47704 15.7907 7.24901 15.659L1.73901 12.479C1.51084 12.3473 1.3214 12.1578 1.18974 11.9295C1.05807 11.7013 0.988845 11.4425 0.989014 11.179V4.819C0.988845 4.55553 1.05807 4.29667 1.18974 4.06846C1.3214 3.84024 1.51084 3.65073 1.73901 3.519L7.25001 0.339001L7.24901 0.338001Z"/>
</svg>

<svg width="16" height="16" viewBox="0 0 16 16" xmlns="http://www.w3.org/2000/svg">
  <path fill-rule="evenodd" clip-rule="evenodd" d="M12.76 4.386L7.999 1.637l-4.76 2.748L8 7.134l4.76-2.748zM2.49 5.684v5.496l4.76 2.748V8.433L2.49 5.684zm6.26 8.243l4.758-2.747V5.686L8.75 8.433v5.494zM7.249.338a1.5 1.5 0 011.5 0l5.51 3.18a1.5 1.5 0 01.75 1.3v6.362a1.5 1.5 0 01-.75 1.299l-5.51 3.18a1.5 1.5 0 01-1.5 0l-5.51-3.18a1.5 1.5 0 01-.75-1.3v-6.36a1.5 1.5 0 01.75-1.3L7.25.339z"/>
</svg>
